src/images/bg-color/bg-bottom-desktop.svg

<svg xmlns="http://www.w3.org/2000/svg" fill="none" viewBox="0 0 1280 1925" preserveAspectRatio="none" x="0" y="0">
<path fill="#FEF3E4" d="M65.8509 492.039c13.5802 99.691-37.723 91.628-65.072124 75.135V1791.33c.000009 239.23-13.002276 135.56.000004 202.94 7.89115 40.9 50.92592-157.12 39.60902-202.94-11.3168-45.81-8.4876-131.94 41.0238-150.27 49.5114-18.33 56.5844-60.47 82.0474-113.62 25.463-53.14 90.535-157.6 248.971-76.97 158.436 80.64 263.117 7.33 338.092-65.97 148.534-145.22 400.458.71 470.468 125.12 36.74 65.28-63.48 399.1 0 430.23 31.72 15.55 60.01 301.38 60.01-15.55V471.88c-.94 13.439-7.92 36.285-28.29 20.159-59.98-39.584-35.37-160.656-15.56-216.244 10.84-53.145 14.43-177.7595-58-251.0623-85.18-86.2094-335.839 80.6333-481.251 80.6333-158.867 0-235.958-47.6468-330.736-91.6285-94.779-43.9817-169.754 31.1536-199.46 91.6285-29.707 60.475-31.122 84.298-76.3892 111.787-89.12036 42.149-42.4383 150.271-25.4629 274.886Z"/></svg>

<svg width="1280" height="1861" viewBox="0 0 1280 1861" fill="none" xmlns="http://www.w3.org/2000/svg">
<path d="M65.8509 492.039C79.4311 591.73 28.1279 583.667 0.778776 567.174V1791.33C0.778785 2030.56 -12.2235 1926.89 0.77878 1994.27C8.66993 2035.17 51.7047 1837.15 40.3878 1791.33C29.071 1745.52 31.9002 1659.39 81.4116 1641.06C130.923 1622.73 137.996 1580.59 163.459 1527.44C188.922 1474.3 253.994 1369.84 412.43 1450.47C570.866 1531.11 675.547 1457.8 750.522 1384.5C899.056 1239.28 1150.98 1385.21 1220.99 1509.62C1257.73 1574.9 1157.51 1908.72 1220.99 1939.85C1252.71 1955.4 1281 2241.23 1281 1924.3V471.88C1280.06 485.319 1273.08 508.165 1252.71 492.039C1192.73 452.455 1217.34 331.383 1237.15 275.795C1247.99 222.65 1251.58 98.0355 1179.15 24.7327C1093.97 -61.4767 843.311 105.366 697.899 105.366C539.032 105.366 461.941 57.7192 367.163 13.7375C272.384 -30.2442 197.409 44.8911 167.703 105.366C137.996 165.841 136.581 189.664 91.3138 217.153C2.19344 259.302 48.8755 367.424 65.8509 492.039Z" fill="#FEF3E4"/>
</svg>
